src/images/Telephone_KeepsYouHonest-01.svg

<svg width="130" height="222" viewBox="0 0 130 222" fill="none" xmlns="http://www.w3.org/2000/svg">
<g clip-path="url(#clip0)">
<path d="M105.772 123.986C105.493 124.342 105.208 124.702 104.898 125.058C97.6416 133.306 77.1003 139.279 69.9685 133C69.8513 132.861 68.8317 131.692 67.3234 129.941C63.5252 125.523 56.5982 117.392 53.0392 112.758C47.9606 106.136 38.2922 86.5514 38.2922 86.5514L38.5876 86.3619L38.257 86.4673C38.257 86.4673 31.4925 65.6574 30.5102 57.3671C29.528 49.0768 27.3376 31.5065 27.3376 31.5065L27.5183 31.6253C27.0605 23.1874 42.6594 10.7641 52.4172 8.58549C52.8676 8.48671 53.3152 8.40561 53.7669 8.33723C55.2937 13.6439 56.7134 19.2117 57.9928 24.9812C59.2721 30.7506 60.3345 36.4015 61.1994 41.8464C60.7631 41.9716 60.3217 42.0899 59.8655 42.1877C59.238 42.3374 58.568 42.4502 57.9262 42.5372C55.8441 43.8006 50.7899 47.1912 51.6739 49.6913C52.7734 52.823 62.6507 72.5003 63.0462 74.7247C63.0462 74.7247 63.0416 74.7541 63.0398 74.7659C63.0519 74.7641 63.0642 74.766 63.0752 74.7715C64.3473 76.6435 71.6041 99.0586 72.996 102.097C73.9211 104.102 76.3886 103.968 77.9416 103.655C78.2921 103.19 78.6907 102.727 79.0629 102.278C79.3714 101.927 79.683 101.595 80.0054 101.271C84.3691 104.659 88.7985 108.323 93.2332 112.223C97.6678 116.124 101.863 120.09 105.772 123.986Z" fill="#F58777"/>
<g style="mix-blend-mode:multiply" opacity="0.59">
<g style="mix-blend-mode:multiply" opacity="0.59">
<path d="M69.9705 132.988C69.8533 132.849 68.8337 131.681 67.3254 129.929C63.5271 125.512 56.6002 117.38 53.0412 112.747C47.9626 106.124 38.2942 86.5396 38.2942 86.5396L38.5896 86.3502L38.259 86.4556C38.259 86.4556 31.4926 65.6575 30.5104 57.3671C29.5281 49.0768 27.3377 31.5065 27.3377 31.5065L27.5185 31.6254C27.0738 23.413 39.2262 88.1531 67.0974 117.854C68.4952 119.347 71.1052 118.377 71.8719 116.486C73.2147 113.15 74.5061 108.44 74.4602 108.657C71.3509 124.384 77.6905 139.214 69.9705 132.988Z" fill="#F58777"/>
</g>
</g>
<path d="M55.4237 7.2432C56.9557 12.6715 58.3833 18.3433 59.6765 24.2175C60.9697 30.0918 62.0945 35.8069 62.9832 41.3703C63.0325 41.6924 62.981 42.022 62.8359 42.3138C65.0798 42.4101 67.3266 42.2044 69.5158 41.7022C69.9141 41.6114 70.2623 41.3712 70.4886 41.031C70.7148 40.6909 70.8018 40.2769 70.7316 39.8745C69.827 34.2965 69.4268 28.6222 68.1289 22.7774C66.8311 16.9326 64.7171 11.208 63.191 5.78057C63.0789 5.3884 62.8223 5.05332 62.4729 4.84291C62.1235 4.6325 61.7073 4.56241 61.3082 4.64679C59.2057 5.11219 57.1711 5.84382 55.2536 6.82398C55.3307 6.95454 55.388 7.09582 55.4237 7.2432Z" fill="#F58777"/>
<g style="mix-blend-mode:multiply" opacity="0.55">
<g style="mix-blend-mode:multiply" opacity="0.55">
<path d="M65.1589 42.2174C66.66 42.2542 68.1589 42.0817 69.6124 41.705C70.0095 41.614 70.3569 41.3749 70.5838 41.0365C70.8107 40.6982 70.8999 40.286 70.8332 39.8841C69.9286 34.3061 69.5284 28.6318 68.2306 22.787C66.9327 16.9422 64.8178 11.2235 63.2858 5.79517C63.0558 4.98603 65.2943 41.9304 65.1589 42.2174Z" fill="#F58777"/>
</g>
</g>
<path d="M69.9547 132.973C68.9361 132.081 68.0459 131.051 67.3096 129.914C68.8179 131.666 69.8375 132.834 69.9547 132.973Z" fill="#F58777"/>
<path d="M80.6974 99.4341C85.1367 102.918 89.6335 106.653 94.1284 110.593C98.6234 114.533 102.899 118.56 106.916 122.51C107.155 122.738 107.32 123.033 107.387 123.357C109.256 122.126 110.952 120.649 112.428 118.967C112.695 118.659 112.835 118.261 112.819 117.853C112.803 117.446 112.633 117.06 112.342 116.773C108.327 112.818 104.652 108.462 100.154 104.503C95.6559 100.545 90.5634 97.1818 86.135 93.7052C85.8165 93.4512 85.4125 93.3294 85.0067 93.3649C84.6008 93.4005 84.2242 93.5907 83.9547 93.8962C82.5339 95.5122 81.3246 97.3024 80.3558 99.2237C80.4775 99.2802 80.5921 99.3508 80.6974 99.4341Z" fill="#F58777"/>
<g style="mix-blend-mode:multiply">
<path d="M47.3928 40.2454C42.267 38.5113 37.2816 36.3875 32.48 33.8926L52.8211 53.1749L53.0225 52.8137C52.3602 51.3692 51.8691 50.2595 51.6975 49.695C50.8266 47.2273 55.7449 43.894 57.8639 42.588C56.5469 42.6661 53.5839 42.4147 47.3928 40.2454Z" fill="#F58777"/>
</g>
<g style="mix-blend-mode:multiply" opacity="0.55">
<g style="mix-blend-mode:multiply" opacity="0.55">
<path d="M109.274 122.027C110.513 121.177 111.626 120.157 112.58 118.997C112.847 118.689 112.987 118.291 112.971 117.883C112.955 117.476 112.785 117.089 112.494 116.803C108.479 112.847 104.811 108.487 100.313 104.528C95.8148 100.57 90.7223 97.2066 86.2948 93.7242C85.629 93.1913 109.214 121.715 109.274 122.027Z" fill="#F58777"/>
</g>
</g>
<path d="M86.4188 139.798C87.0822 137.767 88.4015 136.014 90.1694 134.814C90.3859 134.681 90.5511 134.478 90.6383 134.239C90.7256 134 90.7299 133.738 90.6505 133.496C90.5711 133.254 90.4127 133.046 90.2007 132.905C89.9887 132.765 89.7355 132.699 89.4818 132.72C88.0055 132.819 86.5864 133.329 85.3855 134.194C84.286 134.979 83.4036 136.03 82.8207 137.249C82.2378 138.468 81.9734 139.815 82.0523 141.164C82.1312 142.513 82.5508 143.819 83.2719 144.962C83.9929 146.105 84.9919 147.046 86.1755 147.698C86.4198 147.828 86.7006 147.875 86.974 147.829C87.2473 147.783 87.4979 147.648 87.6863 147.445C87.8748 147.242 87.9906 146.982 88.0156 146.706C88.0406 146.43 87.9734 146.153 87.8245 145.919C86.6818 144.095 86.1866 141.938 86.4188 139.798Z" fill="#F58777"/>
<path d="M86.1343 144.635C86.5861 144.865 87.017 145.134 87.4221 145.44C89.1046 146.706 90.2189 148.586 90.5224 150.669C90.8259 152.753 90.294 154.873 89.0425 156.566C88.9345 156.715 88.8781 156.896 88.8818 157.08C88.8855 157.264 88.9491 157.442 89.0631 157.587C89.177 157.732 89.335 157.836 89.5132 157.883C89.6914 157.93 89.88 157.917 90.0505 157.847C91.7848 157.123 93.2083 155.811 94.0712 154.142C94.9341 152.472 95.181 150.552 94.7686 148.719C94.3562 146.885 93.3109 145.256 91.8163 144.117C90.3217 142.977 88.4734 142.401 86.5962 142.49C86.3428 142.496 86.0988 142.587 85.9034 142.748C85.7081 142.91 85.5728 143.132 85.5194 143.38C85.4661 143.628 85.4977 143.886 85.6093 144.114C85.7208 144.341 85.9058 144.525 86.1343 144.635Z" fill="#F58777"/>
<path d="M85.9023 160.812C86.5644 158.78 87.8839 157.027 89.6529 155.828C89.8661 155.693 90.0282 155.49 90.1138 155.252C90.1993 155.014 90.2035 154.755 90.1255 154.515C90.0476 154.274 89.892 154.067 89.6832 153.924C89.4745 153.782 89.2243 153.713 88.9721 153.728C87.2478 153.842 85.6069 154.511 84.2952 155.636C82.9836 156.761 82.0719 158.281 81.6968 159.968C81.3216 161.655 81.5034 163.417 82.2147 164.992C82.926 166.567 84.1286 167.869 85.6421 168.703C85.8864 168.833 86.1672 168.88 86.4406 168.834C86.714 168.788 86.9645 168.653 87.153 168.45C87.3415 168.247 87.4573 167.987 87.4823 167.711C87.5073 167.435 87.44 167.158 87.2911 166.924C86.1536 165.101 85.6642 162.948 85.9023 160.812Z" fill="#F58777"/>
<path d="M87.1038 166.345C87.557 166.574 87.9881 166.843 88.3915 167.151C89.8225 168.231 90.85 169.76 91.3097 171.493C91.7694 173.226 91.6347 175.063 90.9273 176.711C90.6798 177.273 90.3716 177.806 90.0083 178.301C89.9027 178.45 89.8483 178.63 89.8533 178.813C89.8582 178.996 89.9223 179.172 90.0358 179.316C90.1494 179.459 90.3064 179.562 90.4833 179.609C90.6602 179.656 90.8475 179.644 91.0173 179.576C92.7766 178.846 94.2145 177.508 95.0677 175.805C95.7007 174.557 95.9952 173.165 95.9216 171.767C95.8481 170.37 95.4091 169.016 94.6486 167.841C93.8881 166.666 92.8326 165.712 91.5876 165.073C90.3427 164.433 88.9518 164.132 87.5539 164.199C87.3038 164.211 87.0648 164.307 86.8744 164.469C86.684 164.632 86.5529 164.853 86.5014 165.099C86.45 165.344 86.4813 165.599 86.5902 165.825C86.6992 166.05 86.8798 166.233 87.1038 166.345Z" fill="#F58777"/>
<path d="M87.7397 179.831C88.7365 177.942 90.3337 176.438 92.2795 175.557C92.5142 175.46 92.7099 175.288 92.8356 175.067C92.9613 174.847 93.0098 174.59 92.9735 174.339C92.9371 174.088 92.818 173.856 92.6349 173.68C92.4519 173.505 92.2153 173.395 91.9629 173.369C90.2458 173.194 88.5182 173.58 87.0387 174.469C85.5592 175.358 84.4072 176.701 83.755 178.299C83.1028 179.897 82.9855 181.664 83.4207 183.334C83.8558 185.004 84.82 186.489 86.169 187.565C86.3866 187.738 86.6555 187.833 86.9331 187.835C87.2108 187.838 87.4813 187.747 87.7019 187.578C87.9224 187.41 88.0803 187.172 88.1506 186.904C88.2209 186.635 88.1996 186.351 88.09 186.095C87.2742 184.106 87.1508 181.899 87.7397 179.831Z" fill="#F58777"/>
<path d="M86.6409 184.546C87.0512 184.845 87.4336 185.179 87.7835 185.546C89.0109 186.852 89.7646 188.532 89.9238 190.317C90.0831 192.102 89.6387 193.889 88.6618 195.391C88.3288 195.908 87.9361 196.384 87.4919 196.809C87.3586 196.938 87.2714 197.107 87.2436 197.291C87.2158 197.474 87.2491 197.662 87.3382 197.825C87.4273 197.988 87.5674 198.117 87.737 198.192C87.9065 198.268 88.0962 198.285 88.2768 198.242C90.1046 197.817 91.7246 196.762 92.8532 195.263C93.9819 193.764 94.5473 191.915 94.4506 190.041C94.3538 188.167 93.6011 186.386 92.324 185.011C91.047 183.636 89.327 182.754 87.4651 182.519C87.216 182.483 86.9622 182.532 86.744 182.657C86.5258 182.783 86.3558 182.977 86.2611 183.211C86.1663 183.444 86.1523 183.702 86.2211 183.944C86.2899 184.186 86.4377 184.398 86.6409 184.546Z" fill="#F58777"/>
<path d="M83.7019 200.458C84.6991 198.569 86.2962 197.065 88.2417 196.183C88.4764 196.086 88.6721 195.914 88.7978 195.694C88.9235 195.473 88.9721 195.217 88.9357 194.966C88.8994 194.715 88.7802 194.483 88.5971 194.307C88.4141 194.131 88.1776 194.021 87.9251 193.995C86.2097 193.825 84.4852 194.214 83.0087 195.103C81.5321 195.993 80.3825 197.336 79.7312 198.932C79.0798 200.528 78.9616 202.292 79.394 203.96C79.8265 205.629 80.7866 207.113 82.1312 208.192C82.3488 208.364 82.6177 208.459 82.8954 208.462C83.173 208.464 83.4435 208.374 83.6641 208.205C83.8846 208.036 84.0425 207.799 84.1128 207.53C84.1831 207.262 84.1618 206.977 84.0522 206.722C83.2377 204.732 83.1144 202.526 83.7019 200.458Z" fill="#F58777"/>
<path d="M83.9241 206.11C84.3361 206.404 84.719 206.737 85.0676 207.104C86.5119 208.642 87.2913 210.687 87.2368 212.796C87.1822 214.904 86.2979 216.906 84.776 218.367C84.6427 218.496 84.5555 218.665 84.5277 218.849C84.4999 219.032 84.5332 219.22 84.6223 219.383C84.7114 219.546 84.8515 219.675 85.0211 219.75C85.1906 219.825 85.3803 219.843 85.5609 219.8C87.3887 219.375 89.0087 218.32 90.1373 216.821C91.266 215.322 91.8314 213.473 91.7347 211.599C91.6379 209.725 90.8852 207.944 89.6081 206.569C88.3311 205.194 86.6111 204.312 84.7492 204.077C84.5004 204.044 84.2478 204.095 84.0309 204.221C83.814 204.347 83.6452 204.542 83.5508 204.775C83.4565 205.007 83.4419 205.264 83.5095 205.506C83.577 205.748 83.7229 205.96 83.9241 206.11Z" fill="#F58777"/>
</g>
<defs>
<clipPath id="clip0">
<rect width="97.9822" height="209.005" fill="white" transform="translate(32.2598) rotate(8.87902)"/>
</clipPath>
</defs>
</svg>

<svg width="130" height="222" viewBox="0 0 130 222" fill="none" xmlns="http://www.w3.org/2000/svg"><g clip-path="url(#clip0)"><path d="M105.772 123.986c-.279.356-.564.716-.874 1.072-7.256 8.248-27.798 14.221-34.93 7.942-.117-.139-1.136-1.308-2.645-3.059-3.798-4.418-10.725-12.549-14.284-17.183-5.078-6.622-14.747-26.207-14.747-26.207l.296-.19-.331.106s-6.764-20.81-7.747-29.1c-.982-8.29-3.172-25.86-3.172-25.86l.18.118c-.457-8.438 15.141-20.86 24.9-23.04.45-.098.897-.18 1.349-.248a277.895 277.895 0 0 1 4.226 16.644c1.28 5.77 2.341 11.42 3.206 16.865a20.08 20.08 0 0 1-1.334.342 20.16 20.16 0 0 1-1.939.35c-2.082 1.263-7.136 4.653-6.252 7.153 1.1 3.132 10.977 22.81 11.372 25.034l-.006.04a.06.06 0 0 1 .035.007c1.272 1.871 8.53 24.287 9.921 27.325.925 2.005 3.393 1.871 4.946 1.558.35-.465.749-.928 1.12-1.377.31-.351.621-.683.943-1.007a281.596 281.596 0 0 1 13.228 10.952 276.788 276.788 0 0 1 12.539 11.763z" fill="#F58777"/><path d="M69.97 132.988c-.117-.139-1.136-1.307-2.645-3.059-3.798-4.417-10.725-12.549-14.284-17.182-5.078-6.623-14.747-26.207-14.747-26.207l.296-.19-.331.106s-6.766-20.799-7.749-29.089c-.982-8.29-3.172-25.86-3.172-25.86l.18.118c-.444-8.212 11.708 56.528 39.58 86.229 1.397 1.493 4.007.523 4.774-1.368 1.343-3.336 2.634-8.046 2.588-7.829-3.11 15.727 3.23 30.557-4.49 24.331z" fill="#F58777" opacity=".59"/><path d="M55.424 7.243c1.532 5.428 2.96 11.1 4.252 16.974 1.294 5.875 2.418 11.59 3.307 17.153.05.322-.002.652-.147.944 2.244.096 4.49-.11 6.68-.612a1.594 1.594 0 0 0 1.216-1.828c-.905-5.578-1.305-11.252-2.603-17.097-1.298-5.844-3.412-11.569-4.938-16.996a1.612 1.612 0 0 0-1.883-1.134 25.33 25.33 0 0 0-6.054 2.177c.077.13.134.272.17.42z" fill="#F58777"/><path d="M65.159 42.217c1.501.037 3-.135 4.453-.512a1.6 1.6 0 0 0 1.221-1.82c-.904-5.579-1.305-11.253-2.602-17.098-1.298-5.845-3.413-11.563-4.945-16.992-.23-.809 2.008 36.135 1.873 36.422z" fill="#F58777" opacity=".55"/><path d="M69.955 132.973a14.654 14.654 0 0 1-2.645-3.059c1.508 1.752 2.528 2.92 2.645 3.059zM80.697 99.434a322.36 322.36 0 0 1 13.431 11.159c4.495 3.94 8.771 7.967 12.788 11.917.239.228.404.523.471.847a25.01 25.01 0 0 0 5.041-4.39 1.604 1.604 0 0 0-.086-2.194c-4.015-3.955-7.69-8.311-12.188-12.27-4.498-3.958-9.59-7.321-14.019-10.798a1.588 1.588 0 0 0-2.18.191 25.363 25.363 0 0 0-3.6 5.328c.123.056.237.127.342.21zM47.393 40.245a106.06 106.06 0 0 1-14.913-6.352l20.341 19.282.202-.361c-.663-1.445-1.154-2.554-1.326-3.119-.87-2.468 4.048-5.801 6.167-7.107-1.317.078-4.28-.173-10.471-2.343z" fill="#F58777"/><path d="M109.274 122.027a15.998 15.998 0 0 0 3.306-3.03 1.604 1.604 0 0 0-.086-2.194c-4.015-3.956-7.683-8.316-12.181-12.275-4.498-3.958-9.59-7.321-14.018-10.804-.666-.533 22.919 27.991 22.979 28.303z" fill="#F58777" opacity=".55"/><path d="M86.419 139.798a9.642 9.642 0 0 1 3.75-4.984 1.129 1.129 0 0 0 .481-1.318 1.134 1.134 0 0 0-1.168-.776 7.914 7.914 0 0 0-4.097 1.474 7.987 7.987 0 0 0-3.333 6.97 7.991 7.991 0 0 0 4.123 6.534 1.257 1.257 0 0 0 1.511-.253 1.252 1.252 0 0 0 .138-1.526 9.584 9.584 0 0 1-1.405-6.121z" fill="#F58777"/><path d="M86.134 144.635c.452.23.883.499 1.288.805a7.986 7.986 0 0 1 1.62 11.126.848.848 0 0 0 1.008 1.281 7.993 7.993 0 0 0 1.766-13.73 7.984 7.984 0 0 0-5.22-1.627 1.132 1.132 0 0 0-1.077.89 1.128 1.128 0 0 0 .615 1.255z" fill="#F58777"/><path d="M85.902 160.812a9.622 9.622 0 0 1 3.75-4.984 1.137 1.137 0 0 0 .474-1.313 1.141 1.141 0 0 0-1.154-.787 7.993 7.993 0 0 0-3.33 14.975 1.257 1.257 0 0 0 1.511-.253 1.252 1.252 0 0 0 .138-1.526 9.547 9.547 0 0 1-1.389-6.112z" fill="#F58777"/><path d="M87.104 166.345c.453.229.884.498 1.287.806a8.014 8.014 0 0 1 2.536 9.56 8.428 8.428 0 0 1-.919 1.59.846.846 0 0 0 1.01 1.275 7.928 7.928 0 0 0 4.05-3.771 7.996 7.996 0 0 0-7.514-11.606 1.134 1.134 0 0 0-.45 2.146z" fill="#F58777"/><path d="M87.74 179.831a9.62 9.62 0 0 1 4.54-4.274 1.14 1.14 0 0 0-.317-2.188 7.988 7.988 0 0 0-8.208 4.93 7.993 7.993 0 0 0 2.414 9.266 1.242 1.242 0 0 0 1.533.013 1.245 1.245 0 0 0 .388-1.483 9.59 9.59 0 0 1-.35-6.264z" fill="#F58777"/><path d="M86.64 184.546c.411.299.794.633 1.144 1a8.005 8.005 0 0 1 .878 9.845 7.832 7.832 0 0 1-1.17 1.418.846.846 0 0 0 .785 1.433 7.996 7.996 0 0 0-.812-15.723 1.127 1.127 0 0 0-.824 2.027z" fill="#F58777"/><path d="M83.702 200.458a9.63 9.63 0 0 1 4.54-4.275 1.143 1.143 0 0 0 .694-1.217 1.14 1.14 0 0 0-1.01-.971 8.002 8.002 0 0 0-8.195 4.937 7.997 7.997 0 0 0 2.4 9.26 1.249 1.249 0 0 0 1.921-1.47 9.607 9.607 0 0 1-.35-6.264z" fill="#F58777"/><path d="M83.924 206.11c.412.294.795.627 1.144.994a8.012 8.012 0 0 1-.292 11.263.846.846 0 0 0 .785 1.433 7.996 7.996 0 0 0-.812-15.723 1.134 1.134 0 0 0-.825 2.033z" fill="#F58777"/></g><defs><clipPath id="clip0"><path fill="#fff" transform="rotate(8.879 16.13 207.754)" d="M0 0h97.982v209.005H0z"/></clipPath></defs></svg>
